styles/2/Numix/22/places/purple-folder-books.svg

<?xml version="1.0" encoding="UTF-8" standalone="no"?>
<svg
   xmlns:dc="http://purl.org/dc/elements/1.1/"
   xmlns:cc="http://creativecommons.org/ns#"
   xmlns:rdf="http://www.w3.org/1999/02/22-rdf-syntax-ns#"
   xmlns:svg="http://www.w3.org/2000/svg"
   xmlns="http://www.w3.org/2000/svg"
   xmlns:sodipodi="http://sodipodi.sourceforge.net/DTD/sodipodi-0.dtd"
   xmlns:inkscape="http://www.inkscape.org/namespaces/inkscape"
   width="22"
   height="22"
   viewBox="0 0 22 22"
   id="svg2"
   version="1.1"
   inkscape:version="0.91 r"
   sodipodi:docname="purple-folder-books.svg">
  <metadata
     id="metadata14">
    <rdf:RDF>
      <cc:Work
         rdf:about="">
        <dc:format>image/svg+xml</dc:format>
        <dc:type
           rdf:resource="http://purl.org/dc/dcmitype/StillImage" />
      </cc:Work>
    </rdf:RDF>
  </metadata>
  <defs
     id="defs12" />
  <sodipodi:namedview
     pagecolor="#ffffff"
     bordercolor="#666666"
     borderopacity="1"
     objecttolerance="10"
     gridtolerance="10"
     guidetolerance="10"
     inkscape:pageopacity="0"
     inkscape:pageshadow="2"
     inkscape:window-width="1366"
     inkscape:window-height="747"
     id="namedview10"
     showgrid="true"
     inkscape:zoom="11.313709"
     inkscape:cx="9.8266141"
     inkscape:cy="9.5519708"
     inkscape:window-x="0"
     inkscape:window-y="21"
     inkscape:window-maximized="1"
     inkscape:current-layer="svg2">
    <inkscape:grid
       type="xygrid"
       id="grid2991" />
  </sodipodi:namedview>
  <path
     style="font-size:medium;font-style:normal;font-variant:normal;font-weight:normal;font-stretch:normal;text-indent:0;text-align:start;text-decoration:none;line-height:normal;letter-spacing:normal;word-spacing:normal;text-transform:none;direction:ltr;block-progression:tb;writing-mode:lr-tb;text-anchor:start;baseline-shift:baseline;color:#000000;fill:#7e57c2;fill-opacity:1;fill-rule:nonzero;stroke:none;stroke-width:1.03313816;marker:none;visibility:visible;display:inline;overflow:visible;enable-background:accumulate;font-family:Sans;-inkscape-font-specification:Sans"
     d="M 3,2 C 2.4526694,2 2,2.4096882 2,3 L 2,4 1,4 C 0.49807276,4 0,4.3847489 0,5 c -1.5249792e-5,4.5937493 0,9.40625 0,14 0,0.545771 0.49341731,1 1,1 l 20,0 c 0.515688,0 1,-0.437034 1,-1 L 22,6 C 22,5.4229791 21.576895,5 21,5 L 19,5 19,3 C 19,2.5125745 18.598176,2 18,2 z"
     id="path2995"
     inkscape:connector-curvature="0"
     sodipodi:nodetypes="ccccccssssscssc" />
  <path
     style="font-size:medium;font-style:normal;font-variant:normal;font-weight:normal;font-stretch:normal;text-indent:0;text-align:start;text-decoration:none;line-height:normal;letter-spacing:normal;word-spacing:normal;text-transform:none;direction:ltr;block-progression:tb;writing-mode:lr-tb;text-anchor:start;baseline-shift:baseline;color:#000000;fill:#000000;fill-opacity:0.32156863;fill-rule:nonzero;stroke:none;stroke-width:1.03313816;marker:none;visibility:visible;display:inline;overflow:visible;enable-background:accumulate;font-family:Sans;-inkscape-font-specification:Sans"
     d="M 3,2 C 2.4555457,2 2,2.3988699 2,3 L 2,4 1,4 C 0.49324055,4 0,4.3964676 0,5 c -2.5951589e-5,4.5937491 0,9.40625 0,14 0,0.487177 0.41919856,1 1,1 l 20,0 c 0.521212,0 1,-0.442558 1,-1 L 22,6 C 22,5.4268854 21.606096,5 21,5 L 19,5 19,3 C 19,2.4414881 18.542567,2 18,2 z m 10,3 0,1 8,0 0,13 L 1,19 1,5 z"
     id="path3786"
     inkscape:connector-curvature="0"
     sodipodi:nodetypes="ssccccssssscsssccccccc" />
  <path
     sodipodi:nodetypes="ccccccccccccccccccccc"
     id="path53"
     d="m 12,18 0,-6 -2.0000003,0 0,6 z m -3.0000003,-7.0831 -3,-2.0831001 0,6.2500001 3,2.0831 z M 16,15.0838 16,8.8337999 13,10.9167 13,17.1668 Z M 15.374999,7.9999999 c -1.874999,0 -3.124999,0.625 -4.375,1.6667001 C 9.7499992,8.6249999 8.4999998,7.9999999 6.6249997,7.9999999 L 9.9999998,10.5 12,10.5 Z"
     style="opacity:0.4;fill:#3c2f1b;fill-opacity:1;fill-rule:nonzero;stroke:none"
     inkscape:connector-curvature="0" />
</svg>

<svg xmlns="http://www.w3.org/2000/svg" viewBox="0 0 22 22">
 <path d="m 3 2 c -0.547 0 -1 0.41 -1 1 l 0 1 -1 0 c -0.502 0 -1 0.385 -1 1 c 0 4.594 0 9.406 0 14 0 0.546 0.493 1 1 1 l 20 0 c 0.516 0 1 -0.437 1 -1 l 0 -13 c 0 -0.577 -0.423 -1 -1 -1 l -2 0 0 -2 c 0 -0.487 -0.402 -1 -1 -1 z" style="visibility:visible;fill:#7e57c2;fill-opacity:1;stroke:none;display:inline;color:#000;fill-rule:nonzero"/>
 <path d="m 3 2 c -0.544 0 -1 0.399 -1 1 l 0 1 -1 0 c -0.507 0 -1 0.396 -1 1 c 0 4.594 0 9.406 0 14 0 0.487 0.419 1 1 1 l 20 0 c 0.521 0 1 -0.443 1 -1 l 0 -13 c 0 -0.573 -0.394 -1 -1 -1 l -2 0 0 -2 c 0 -0.559 -0.457 -1 -1 -1 z m 10 3 0 1 8 0 0 13 l -20 0 0 -14 z" style="visibility:visible;fill:#000;fill-opacity:0.322;stroke:none;display:inline;color:#000;fill-rule:nonzero"/>
 <path d="m 12 18 0 -6 -2 0 0 6 z m -3 -7.083 -3 -2.083 0 6.25 3 2.083 z m 7 4.167 0 -6.25 -3 2.083 0 6.25 m 2.375 -9.167 c -1.875 0 -3.125 0.625 -4.375 1.667 c -1.25 -1.042 -2.5 -1.667 -4.375 -1.667 l 3.375 2.5 2 0" style="fill:#3c2f1b;opacity:0.4;fill-opacity:1;stroke:none;fill-rule:nonzero"/>
</svg>
